;START_OF_HEADER
;HEADER_VERSION:0.1
;FLAVOR:Griffin
;GENERATOR.NAME:Cura_SteamEngine
;GENERATOR.VERSION:5.8.1
;GENERATOR.BUILD_DATE:2024-08-28
;TARGET_MACHINE.NAME:Ultimaker S3
;EXTRUDER_TRAIN.0.INITIAL_TEMPERATURE:195
;EXTRUDER_TRAIN.0.MATERIAL.VOLUME_USED:561
;EXTRUDER_TRAIN.0.MATERIAL.GUID:506c9f0d-e3aa-4bd4-b2d2-23e2425b1aa9
;EXTRUDER_TRAIN.0.NOZZLE.DIAMETER:0.4
;EXTRUDER_TRAIN.0.NOZZLE.NAME:AA 0.4
;BUILD_PLATE.INITIAL_TEMPERATURE:60
;PRINT.TIME:3154
;PRINT.GROUPS:1
;PRINT.SIZE.MIN.X:100.998
;PRINT.SIZE.MIN.Y:81.416
;PRINT.SIZE.MIN.Z:0.2
;PRINT.SIZE.MAX.X:180
;PRINT.SIZE.MAX.Y:180
;PRINT.SIZE.MAX.Z:20.001
;SLICE_UUID:99c38e29-26f6-4d6b-abb8-10b8fd237436
;END_OF_HEADER
;Generated with Cura_SteamEngine 5.8.1
T0
M82 ;absolute extrusion mode

G92 E0
M190 S60
M104 S195
M109 S195
G280 S1
G0 Z20.001
G1 F2700 E-6.5
;LAYER_COUNT:331
G0 F9000 X180 Y180
;LAYER:0
M106 S255
M204 S1000
M205 X20 Y20
G1 F600 Z2.2
G0 F9000 X122.541 Y105.947 Z2.2
;TYPE:SKIRT
G1 F600 Z0.2
G1 F2700 E0
G1 F432 X121.417 Y106.684 E0.01686
G1 X119.429 Y107.642 E0.04453
G1 X117.968 Y108.114 E0.06378
G1 X116.169 Y108.452 E0.08674
G1 X114.618 Y108.55 E0.10623
G1 X112.583 Y108.418 E0.1318
G1 X110.814 Y108.024 E0.15453
G1 X108.447 Y107.115 E0.18632
G1 X107.217 Y106.407 E0.20412
G1 X106.028 Y105.544 E0.22255
G1 X104.548 Y104.145 E0.24809
G1 X103.262 Y102.529 E0.27398
G1 X102.614 Y101.442 E0.28985
G1 X101.807 Y99.634 E0.31468
G1 X101.418 Y98.392 E0.331
G1 X101.148 Y97.051 E0.34816
G1 X100.998 Y95.313 E0.37003
G1 X101.144 Y92.953 E0.39969
G1 X101.538 Y91.167 E0.42262
G1 X101.822 Y90.317 E0.43386
G1 X102.67 Y88.467 E0.45938
G1 X103.431 Y87.244 E0.47744
G1 X104.686 Y85.692 E0.50247
G1 X106.122 Y84.381 E0.52686
G1 X107.434 Y83.461 E0.54695
G1 X109.529 Y82.408 E0.57636
G1 X111.691 Y81.748 E0.6047
G1 X113.693 Y81.468 E0.63005
G1 X115.408 Y81.416 E0.65157
G1 X117.578 Y81.79 E0.67919
G1 X119.54 Y82.396 E0.70494
G1 X121.395 Y83.234 E0.73046
G1 X123.074 Y84.463 E0.75656
G1 X124.453 Y85.748 E0.78019
G1 X125.378 Y86.847 E0.79821
G1 X126.557 Y88.583 E0.82452
G1 X127.383 Y90.645 E0.85238
G1 X127.843 Y92.371 E0.87478
G1 X128.08 Y94.07 E0.89629
G1 X128.111 Y94.847 E0.90604
G1 X128.007 Y96.631 E0.92845
G1 X127.682 Y98.578 E0.95321
G1 X126.885 Y100.604 E0.98051
G1 X125.854 Y102.471 E1.00725
G1 X124.899 Y103.751 E1.02728
G1 X123.853 Y104.854 E1.04634
G1 X122.541 Y105.947 E1.06776
G0 F9000 X122.322 Y105.612
G1 F432 X121.198 Y106.349 E1.08461
G1 X119.306 Y107.261 E1.11095
G1 X117.845 Y107.733 E1.13021
G1 X116.143 Y108.053 E1.15192
G1 X114.643 Y108.151 E1.17077
G1 X112.669 Y108.027 E1.19558
G1 X110.957 Y107.65 E1.21756
G1 X108.647 Y106.768 E1.24857
G1 X107.417 Y106.06 E1.26637
G1 X106.303 Y105.253 E1.28362
G1 X104.823 Y103.854 E1.30916
G1 X103.606 Y102.324 E1.33367
G1 X102.958 Y101.237 E1.34954
G1 X102.189 Y99.514 E1.3732
G1 X101.8 Y98.272 E1.38953
G1 X101.547 Y97.017 E1.40558
G1 X101.397 Y95.279 E1.42746
G1 X101.535 Y93.039 E1.4556
G1 X101.929 Y91.253 E1.47854
G1 X102.186 Y90.484 E1.4887
G1 X103.034 Y88.634 E1.51422
G1 X103.77 Y87.456 E1.53164
G1 X104.956 Y85.987 E1.55532
G1 X106.352 Y84.709 E1.57905
G1 X107.664 Y83.789 E1.59915
G1 X109.647 Y82.79 E1.62699
G1 X111.747 Y82.144 E1.65455
G1 X113.705 Y81.868 E1.67934
G1 X115.382 Y81.817 E1.70038
G1 X117.46 Y82.172 E1.72682
G1 X119.375 Y82.761 E1.75194
G1 X121.194 Y83.583 E1.77698
G1 X122.801 Y84.756 E1.80193
G1 X124.18 Y86.041 E1.82556
G1 X125.047 Y87.072 E1.84246
G1 X126.203 Y88.774 E1.86826
G1 X126.996 Y90.748 E1.89494
G1 X127.456 Y92.474 E1.91734
G1 X127.68 Y94.086 E1.93775
G1 X127.711 Y94.863 E1.9475
G1 X127.612 Y96.565 E1.96888
G1 X127.294 Y98.473 E1.99313
G1 X126.513 Y100.457 E2.01987
G1 X125.533 Y102.232 E2.0453
G1 X124.578 Y103.512 E2.06533
G1 X123.597 Y104.547 E2.08321
G1 X122.322 Y105.612 E2.10404
G0 F9000 X122.103 Y105.277
G1 F432 X120.979 Y106.014 E2.1209
G1 X119.183 Y106.88 E2.1459
G1 X117.722 Y107.352 E2.16515
G1 X116.116 Y107.654 E2.18565
G1 X114.667 Y107.752 E2.20386
G1 X112.754 Y107.636 E2.22789
G1 X111.099 Y107.276 E2.24913
G1 X108.847 Y106.421 E2.27934
G1 X107.617 Y105.713 E2.29714
G1 X106.577 Y104.962 E2.31323
G1 X105.136 Y103.604 E2.33806
G1 X103.95 Y102.119 E2.36189
G1 X103.302 Y101.032 E2.37776
G1 X102.571 Y99.394 E2.40025
G1 X102.182 Y98.152 E2.41657
G1 X101.946 Y96.983 E2.43153
G1 X101.796 Y95.245 E2.45341
G1 X101.926 Y93.125 E2.48004
G1 X102.309 Y91.379 E2.50246
G1 X102.55 Y90.65 E2.51209
G1 X103.374 Y88.845 E2.53697
G1 X104.082 Y87.707 E2.55378
G1 X105.227 Y86.282 E2.5767
G1 X106.582 Y85.037 E2.59978
G1 X107.894 Y84.117 E2.61987
G1 X109.826 Y83.148 E2.64698
G1 X111.803 Y82.54 E2.67291
G1 X113.717 Y82.268 E2.69716
G1 X115.357 Y82.218 E2.71773
G1 X117.343 Y82.555 E2.74299
G1 X119.21 Y83.126 E2.76748
G1 X120.994 Y83.932 E2.79203
G1 X122.565 Y85.079 E2.81642
G1 X123.907 Y86.333 E2.83945
G1 X124.716 Y87.297 E2.85523
G1 X125.848 Y88.963 E2.88049
G1 X126.609 Y90.851 E2.90602
G1 X127.069 Y92.577 E2.92842
G1 X127.28 Y94.102 E2.94773
G1 X127.311 Y94.879 E2.95748
G1 X127.217 Y96.499 E2.97783
G1 X126.906 Y98.368 E3.00159
G1 X126.141 Y100.31 E3.02776
G1 X125.212 Y101.993 E3.05187
G1 X124.287 Y103.237 E3.07131
G1 X123.34 Y104.24 E3.08861
G1 X122.103 Y105.277 E3.10885
G0 F9000 X121.884 Y104.942
G1 F432 X120.76 Y105.679 E3.12571
G1 X119.06 Y106.499 E3.14938
G1 X117.599 Y106.971 E3.16863
G1 X116.088 Y107.255 E3.18791
G1 X114.69 Y107.353 E3.20548
G1 X112.838 Y107.245 E3.22875
G1 X111.24 Y106.902 E3.24924
G1 X109.047 Y106.074 E3.27864
G1 X107.817 Y105.366 E3.29644
G1 X106.812 Y104.638 E3.312
G1 X105.448 Y103.354 E3.33549
G1 X104.294 Y101.914 E3.35863
G1 X103.646 Y100.827 E3.3745
G1 X102.953 Y99.274 E3.39583
G1 X102.564 Y98.032 E3.41215
G1 X102.345 Y96.949 E3.42601
G1 X102.195 Y95.211 E3.44788
G1 X102.317 Y93.21 E3.47302
G1 X102.689 Y91.505 E3.49491
G1 X102.93 Y90.776 E3.50454
G1 X103.714 Y89.056 E3.52824
G1 X104.394 Y87.958 E3.54444
G1 X105.539 Y86.533 E3.56736
G1 X106.812 Y85.365 E3.58902
G1 X108.124 Y84.445 E3.60912
G1 X109.945 Y83.53 E3.63468
G1 X111.86 Y82.936 E3.65982
G1 X113.729 Y82.668 E3.6835
G1 X115.333 Y82.619 E3.70362
G1 X117.226 Y82.938 E3.7277
G1 X119.093 Y83.509 E3.75218
G1 X120.79 Y84.278 E3.77554
G1 X122.329 Y85.402 E3.79944
G1 X123.601 Y86.591 E3.82128
G1 X124.385 Y87.522 E3.83654
G1 X125.493 Y89.153 E3.86127
G1 X126.222 Y90.954 E3.88563
G1 X126.682 Y92.68 E3.90803
G1 X126.88 Y94.118 E3.92624
G1 X126.911 Y94.895 E3.93599
G1 X126.818 Y96.475 E3.95584
G1 X126.519 Y98.258 E3.97851
G1 X125.769 Y100.163 E4.00418
G1 X124.891 Y101.755 E4.02698
G1 X123.996 Y102.963 E4.04583
G1 X123.082 Y103.934 E4.06256
G1 X121.884 Y104.942 E4.08219
G0 F9000 X121.665 Y104.607
G1 F432 X120.541 Y105.344 E4.09905
G1 X118.937 Y106.118 E4.12138
G1 X117.476 Y106.59 E4.14063
G1 X116.059 Y106.856 E4.15871
G1 X114.712 Y106.954 E4.17565
G1 X112.921 Y106.854 E4.19814
G1 X111.38 Y106.527 E4.2179
G1 X109.247 Y105.727 E4.24647
G1 X108.017 Y105.019 E4.26427
G1 X107.086 Y104.346 E4.27867
G1 X105.76 Y103.103 E4.30146
G1 X104.638 Y101.709 E4.3239
G1 X103.99 Y100.622 E4.33977
G1 X103.335 Y99.154 E4.35993
G1 X102.946 Y97.912 E4.37625
G1 X102.744 Y96.915 E4.38901
G1 X102.594 Y95.177 E4.41089
G1 X102.708 Y93.295 E4.43453
G1 X103.069 Y91.631 E4.45588
G1 X103.31 Y90.902 E4.46551
G1 X104.054 Y89.267 E4.48804
G1 X104.734 Y88.169 E4.50423
G1 X105.81 Y86.827 E4.52581
G1 X107.042 Y85.693 E4.5468
G1 X108.354 Y84.773 E4.5669
G1 X110.064 Y83.912 E4.59091
G1 X111.979 Y83.318 E4.61605
G1 X113.741 Y83.068 E4.63837
G1 X115.304 Y83.02 E4.65798
G1 X117.109 Y83.321 E4.68093
G1 X118.976 Y83.892 E4.70541
G1 X120.587 Y84.625 E4.7276
G1 X122.093 Y85.725 E4.75099
G1 X123.295 Y86.849 E4.77163
G1 X124.079 Y87.78 E4.78689
G1 X125.136 Y89.339 E4.81051
G1 X125.835 Y91.057 E4.83377
G1 X126.295 Y92.783 E4.85617
G1 X126.48 Y94.134 E4.87327
G1 X126.511 Y94.911 E4.88302
G1 X126.423 Y96.409 E4.90184
G1 X126.131 Y98.153 E4.92402
G1 X125.397 Y100.016 E4.94913
G1 X124.569 Y101.517 E4.97062
G1 X123.704 Y102.689 E4.98889
G1 X122.824 Y103.628 E5.00503
G1 X121.665 Y104.607 E5.02406
G0 F9000 X121.446 Y104.272
G1 F432 X120.322 Y105.009 E5.04091
G1 X118.814 Y105.737 E5.06191
G1 X117.353 Y106.209 E5.08116
G1 X116.03 Y106.457 E5.09804
G1 X114.683 Y106.555 E5.11498
G1 X113.003 Y106.462 E5.13608
G1 X111.52 Y106.152 E5.15508
G1 X109.447 Y105.38 E5.18282
G1 X108.217 Y104.672 E5.20062
G1 X107.321 Y104.022 E5.2145
G1 X106.071 Y102.852 E5.23597
G1 X104.982 Y101.504 E5.2577
G1 X104.334 Y100.417 E5.27357
G1 X103.717 Y99.034 E5.29256
G1 X103.328 Y97.792 E5.30888
G1 X103.143 Y96.881 E5.32054
G1 X102.993 Y95.143 E5.34242
G1 X103.099 Y93.379 E5.36458
G1 X103.449 Y91.757 E5.38539
G1 X103.69 Y91.028 E5.39501
G1 X104.394 Y89.477 E5.41637
G1 X105.047 Y88.418 E5.43198
G1 X106.082 Y87.121 E5.45279
G1 X107.272 Y86.021 E5.47311
G1 X108.584 Y85.101 E5.4932
G1 X110.183 Y84.294 E5.51566
G1 X112.036 Y83.714 E5.54001
G1 X113.753 Y83.468 E5.56176
G1 X115.276 Y83.421 E5.58087
G1 X116.992 Y83.704 E5.60268
G1 X118.859 Y84.275 E5.62717
G1 X120.384 Y84.972 E5.64819
G1 X121.857 Y86.048 E5.67107
G1 X122.989 Y87.107 E5.69051
G1 X123.773 Y88.038 E5.70577
G1 X124.782 Y89.529 E5.72835
G1 X125.448 Y91.16 E5.75044
G1 X125.908 Y92.886 E5.77284
G1 X126.08 Y94.15 E5.78884
G1 X126.111 Y94.927 E5.79859
G1 X126.029 Y96.343 E5.81638
G1 X125.744 Y98.043 E5.83799
G1 X125.025 Y99.869 E5.8626
G1 X124.247 Y101.28 E5.88281
G1 X123.412 Y102.415 E5.90048
G1 X122.532 Y103.354 E5.91662
G1 X121.446 Y104.272 E5.93445
G0 F9000 X121.227 Y103.937
G1 F432 X120.103 Y104.674 E5.9513
G1 X118.691 Y105.356 E5.97097
G1 X117.23 Y105.828 E5.99022
G1 X116.001 Y106.058 E6.0059
G1 X114.654 Y106.156 E6.02284
G1 X113.085 Y106.07 E6.04254
G1 X111.602 Y105.76 E6.06154
G1 X109.647 Y105.033 E6.0877
G1 X108.417 Y104.325 E6.1055
G1 X107.594 Y103.729 E6.11824
G1 X106.382 Y102.6 E6.13901
G1 X105.326 Y101.299 E6.16002
G1 X104.678 Y100.212 E6.17589
G1 X104.099 Y98.914 E6.19372
G1 X103.71 Y97.672 E6.21004
G1 X103.542 Y96.847 E6.2206
G1 X103.392 Y95.109 E6.24247
G1 X103.49 Y93.463 E6.26315
G1 X103.829 Y91.883 E6.28342
G1 X104.07 Y91.154 E6.29304
G1 X104.758 Y89.643 E6.31386
G1 X105.36 Y88.667 E6.32825
G1 X106.354 Y87.414 E6.3483
G1 X107.502 Y86.349 E6.36794
G1 X108.814 Y85.429 E6.38803
G1 X110.302 Y84.676 E6.40895
G1 X112.155 Y84.096 E6.4333
G1 X113.765 Y83.868 E6.45369
G1 X115.25 Y83.822 E6.47232
G1 X116.875 Y84.087 E6.49297
G1 X118.742 Y84.658 E6.51745
G1 X120.179 Y85.318 E6.53728
G1 X121.621 Y86.371 E6.55967
G1 X122.683 Y87.365 E6.57791
G1 X123.467 Y88.296 E6.59318
G1 X124.427 Y89.717 E6.61468
G1 X125.061 Y91.263 E6.63564
G1 X125.521 Y92.989 E6.65804
G1 X125.68 Y94.166 E6.67293
G1 X125.711 Y94.943 E6.68268
G1 X125.634 Y96.277 E6.69944
G1 X125.356 Y97.938 E6.72056
G1 X124.653 Y99.722 E6.7446
G1 X123.924 Y101.044 E6.76354
G1 X123.12 Y102.141 E6.78059
G1 X122.24 Y103.08 E6.79673
G1 X121.227 Y103.937 E6.81337
G0 F9000 X121.008 Y103.602
G1 F432 X119.884 Y104.339 E6.83023
G1 X118.568 Y104.975 E6.84855
G1 X117.107 Y105.447 E6.86781
G1 X115.972 Y105.659 E6.88229
G1 X114.625 Y105.757 E6.89922
G1 X113.167 Y105.678 E6.91754
G1 X111.684 Y105.368 E6.93653
G1 X109.846 Y104.686 E6.96112
G1 X108.652 Y104.001 E6.97838
G1 X107.829 Y103.405 E6.99112
G1 X106.692 Y102.347 E7.0106
G1 X105.67 Y101.094 E7.03088
G1 X105.022 Y100.007 E7.04675
G1 X104.481 Y98.794 E7.0634
G1 X104.092 Y97.552 E7.07972
G1 X103.941 Y96.813 E7.08918
G1 X103.791 Y95.075 E7.11106
G1 X103.881 Y93.546 E7.13027
G1 X104.209 Y92.007 E7.15
G1 X104.434 Y91.32 E7.15907
G1 X105.122 Y89.809 E7.17989
G1 X105.674 Y88.915 E7.19306
G1 X106.627 Y87.707 E7.21236
G1 X107.732 Y86.677 E7.2313
G1 X109.044 Y85.757 E7.2514
G1 X110.421 Y85.058 E7.27076
G1 X112.274 Y84.478 E7.29511
G1 X113.777 Y84.268 E7.31414
G1 X115.224 Y84.223 E7.3323
G1 X116.811 Y84.482 E7.35246
G1 X118.575 Y85.022 E7.3756
G1 X119.98 Y85.667 E7.39498
G1 X121.348 Y86.663 E7.4162
G1 X122.377 Y87.623 E7.43385
G1 X123.161 Y88.554 E7.44911
G1 X124.071 Y89.905 E7.46954
G1 X124.674 Y91.366 E7.48936
G1 X125.134 Y93.092 E7.51176
G1 X125.28 Y94.182 E7.52555
G1 X125.311 Y94.959 E7.53531
G1 X125.24 Y96.211 E7.55103
G1 X124.969 Y97.828 E7.57159
G1 X124.281 Y99.575 E7.59514
G1 X123.601 Y100.808 E7.6128
G1 X122.828 Y101.867 E7.62924
G1 X121.948 Y102.806 E7.64538
G1 X121.008 Y103.602 E7.66082
G0 F9000 X120.789 Y103.267
G1 F432 X119.665 Y104.004 E7.67768
G1 X118.444 Y104.595 E7.69469
G1 X117.033 Y105.054 E7.7133
G1 X115.942 Y105.26 E7.72722
G1 X114.646 Y105.358 E7.74352
G1 X113.249 Y105.286 E7.76106
G1 X111.766 Y104.976 E7.78006
G1 X110.045 Y104.339 E7.80307
G1 X108.887 Y103.677 E7.8198
G1 X108.064 Y103.081 E7.83254
G1 X107.001 Y102.093 E7.85074
G1 X106.014 Y100.889 E7.87026
G1 X105.366 Y99.802 E7.88613
G1 X104.863 Y98.674 E7.90162
G1 X104.484 Y97.47 E7.91745
G1 X104.34 Y96.779 E7.9263
G1 X104.19 Y95.041 E7.94818
G1 X104.272 Y93.629 E7.96592
G1 X104.59 Y92.13 E7.98513
G1 X104.798 Y91.486 E7.99362
G1 X105.486 Y89.975 E8.01444
G1 X105.989 Y89.162 E8.02643
G1 X106.9 Y88 E8.04494
G1 X108.005 Y86.97 E8.06389
G1 X109.226 Y86.113 E8.0826
G1 X110.542 Y85.439 E8.10114
G1 X112.33 Y84.874 E8.12465
G1 X113.789 Y84.668 E8.14313
G1 X115.198 Y84.624 E8.16081
G1 X116.747 Y84.877 E8.18049
G1 X118.408 Y85.386 E8.20228
G1 X119.779 Y86.015 E8.22119
G1 X121.112 Y86.986 E8.24187
G1 X122.071 Y87.881 E8.25832
G1 X122.829 Y88.778 E8.27305
G1 X123.718 Y90.097 E8.293
G1 X124.304 Y91.518 E8.31227
G1 X124.738 Y93.145 E8.33339
G1 X124.88 Y94.198 E8.34671
G1 X124.911 Y94.975 E8.35647
G1 X124.845 Y96.145 E8.37116
G1 X124.581 Y97.723 E8.39122
G1 X123.909 Y99.428 E8.41421
G1 X123.277 Y100.573 E8.43061
G1 X122.535 Y101.594 E8.44644
G1 X121.689 Y102.501 E8.46199
G1 X120.789 Y103.267 E8.47681
G0 F9000 X120.53 Y102.962
G1 F432 X119.49 Y103.644 E8.49241
G1 X118.319 Y104.215 E8.50874
G1 X116.958 Y104.661 E8.5267
G1 X115.911 Y104.861 E8.54007
G1 X114.665 Y104.958 E8.55574
G1 X113.331 Y104.894 E8.57249
G1 X111.848 Y104.584 E8.59149
G1 X110.243 Y103.991 E8.61295
G1 X109.122 Y103.353 E8.62912
G1 X108.299 Y102.757 E8.64187
G1 X107.31 Y101.838 E8.6588
G1 X106.358 Y100.684 E8.67756
G1 X105.71 Y99.597 E8.69343
G1 X105.244 Y98.554 E8.70775
G1 X104.876 Y97.388 E8.72309
G1 X104.732 Y96.697 E8.73194
G1 X104.589 Y95.063 E8.75251
G1 X104.663 Y93.712 E8.76947
G1 X104.971 Y92.253 E8.78817
G1 X105.179 Y91.609 E8.79666
G1 X105.826 Y90.185 E8.81627
G1 X106.305 Y89.408 E8.82772
G1 X107.173 Y88.293 E8.84544
G1 X108.278 Y87.263 E8.86438
G1 X109.41 Y86.468 E8.88173
G1 X110.664 Y85.82 E8.89943
G1 X112.387 Y85.27 E8.92211
G1 X113.802 Y85.068 E8.94004
G1 X115.171 Y85.025 E8.95721
G1 X116.682 Y85.272 E8.97641
G1 X118.241 Y85.75 E8.99686
G1 X119.578 Y86.363 E9.01531
G1 X120.876 Y87.309 E9.03545
G1 X121.765 Y88.139 E9.0507
G1 X122.523 Y89.036 E9.06543
G1 X123.364 Y90.287 E9.08433
G1 X123.934 Y91.67 E9.10309
G1 X124.342 Y93.199 E9.12294
G1 X124.48 Y94.214 E9.13578
G1 X124.511 Y94.991 E9.14553
G1 X124.45 Y96.079 E9.1592
G1 X124.192 Y97.619 E9.17878
G1 X123.558 Y99.236 E9.20056
G1 X122.953 Y100.338 E9.21633
G1 X122.211 Y101.359 E9.23215
G1 X121.43 Y102.196 E9.24651
G1 X120.53 Y102.962 E9.26133
G0 F9000 X120.271 Y102.657
G1 F432 X119.315 Y103.284 E9.27567
G1 X118.144 Y103.855 E9.292
G1 X116.882 Y104.268 E9.30866
G1 X115.879 Y104.462 E9.32147
G1 X114.683 Y104.558 E9.33651
G1 X113.413 Y104.502 E9.35246
G1 X111.93 Y104.192 E9.37146
G1 X110.44 Y103.643 E9.39137
G1 X109.356 Y103.028 E9.407
G1 X108.571 Y102.463 E9.41913
G1 X107.618 Y101.582 E9.4354
G1 X106.702 Y100.479 E9.45338
G1 X106.054 Y99.392 E9.46925
G1 X105.625 Y98.433 E9.48243
G1 X105.268 Y97.306 E9.49725
G1 X105.124 Y96.615 E9.5061
G1 X104.988 Y95.083 E9.52539
G1 X105.054 Y93.794 E9.54158
G1 X105.352 Y92.376 E9.55975
G1 X105.56 Y91.732 E9.56823
G1 X106.167 Y90.394 E9.58666
G1 X106.621 Y89.654 E9.59755
G1 X107.489 Y88.539 E9.61527
G1 X108.509 Y87.59 E9.63274
G1 X109.595 Y86.823 E9.64941
G1 X110.787 Y86.201 E9.66627
G1 X112.444 Y85.666 E9.68811
G1 X113.815 Y85.468 E9.70548
G1 X115.144 Y85.426 E9.72215
G1 X116.617 Y85.667 E9.74087
G1 X118.074 Y86.114 E9.75998
G1 X119.377 Y86.711 E9.77795
G1 X120.64 Y87.632 E9.79756
G1 X121.46 Y88.398 E9.81163
G1 X122.191 Y89.259 E9.82579
